!!!!SEGMENT: pl-wtm--a-22-547_gold-artur--melodja-milosci-o-luby-moj.krn
!!!cenid: 19xx:3
!!!COM: Gold, Artur
!!!COM-rismID: pe50044903
!!!CDT: 1897/03/17-1943
!!!CNT: Polish
!!!OTL: Melodja miłości/O luby mój
!!!PDT: 1931
!!!AGN: Secular
!!!YEC: Copyright 2022 Narodowy Instytut Fryderyka Chopina (https://polishscores.org)
!!!YEM: License CC-BY-4.0 (https://creativecommons.org/licenses/by/4.0)
!!!SMS-siglum: PL-Wtm
!!!SMS-shelfmark: A.22.547
!!!SMS-variant:
!!!SMS-altvar:
!!!SMS-shelfwork: W
!!!NIFC-rismSourceID: 1001217702
!!!NIFC-rismChildID: 1001217702
!!!NIFC-islandoraID: pl-wtm:94827
!!!URL-pdf-islandora: https://repozytorium.nifc.pl/islandora/object/pl-wtm%3A94827/datastream/PDF/view
!!!URL-scan: https://polish.musicsources.pl/pl/lokalizacje/galeria/druki-muzyczne/19711/2 @EN{Scan on Polish Music Sources Website} @PL{Skany w portalu Dziedzictwo Muzyki Polskiej w otwartym dostępie}
!!!IIIF:
!!!ONB-nifc:
!!!AIN: 2 piano 1 vox
!!!key: F
**kern	**kern	**dynam	**kern	**text	**text
*part3	*part2	*part2	*part1	*part1	*part1
*staff3	*staff2	*	*staff1	*staff1	*staff1
*I"PIANO.	*I"PIANO.	*	*I"ŚPIEW.	*	*
*I'[pf]	*I'[pf]	*	*I'[V]	*	*
*ICklav	*ICklav	*	*ICvox	*	*
*Ipiano	*Ipiano	*	*Ivox	*	*
*clefF4	*clefG2	*	*clefG2	*	*
*>[A,A1,A,A2]	*>[A,A1,A,A2]	*>[A,A1,A,A2]	*>[A,A1,A,A2]	*>[A,A1,A,A2]	*>[A,A1,A,A2]
*>A	*>A	*>A	*>A	*>A	*>A
*k[b-]	*k[b-]	*	*k[b-]	*	*
*F:	*F:	*	*F:	*	*
*M4/4	*M4/4	*	*M4/4	*	*
=1	=1	=1	=1	=1	=1
*	*^	*	*	*	*
!	!LO:TX:a:B:t=Tempo Slow-Foxa	!	!	!	!	!
1FF 1C	6f/	2A\ 2c	mf	1r	.	.
.	6g/	.	.	.	.	.
.	6a/	.	.	.	.	.
.	4dd/	4f\ 4a	.	.	.	.
.	4a/	4c\ 4f	.	.	.	.
=2	=2	=2	=2	=2	=2	=2
1DD 1D	1dd	4r	.	1r	.	.
.	.	4e-X\ 4f#X 4cc	.	.	.	.
.	.	4d\ 4f# 4b-	.	.	.	.
.	.	4c\ 4f# 4a	.	.	.	.
=3	=3	=3	=3	=3	=3	=3
1GG 1D	6d/	2G\ 2B-	.	1r	.	.
.	6e/	.	.	.	.	.
.	6f/	.	.	.	.	.
.	4cc/	4d\ 4f 4a	>	.	.	.
.	4a/	4B-\ 4d 4f	.	.	.	.
=4	=4	=4	=4	=4	=4	=4
1CC 1C	1cc	4r	.	1r	.	.
.	.	4d\ 4e 4b-	.	.	.	.
.	.	4c\ 4e 4a	.	.	.	.
.	.	4B-\ 4e 4g	]]	.	.	.
=5||	=5||	=5||	=5||	=5||	=5||	=5||
4FF/ 4F	8.re	4ryy	p	8.r	.	.
.	16cc/KL	.	.	16cc\	1. O	2. Me
4r	8.cc/	4c\ 4f 4a	.	8.cc\	lu-	ser-
.	16a/Jk	.	.	16a/	-by	-ce
4BBB-/ 4BB-	2b-/	4r	.	2b-\	mój,	drży
4r	.	4d-X\ 4f 4g	.	.	.	.
!!LO:LB:g=original	!	!	!	!	!	!
=6	=6	=6	=6	=6	=6	=6
4FF/ 4F	8.r	4rg	.	8.r	.	.
.	16a/KL	.	.	16a/	1.       Nić	2.       Ty
4r	8.a/	4c\ 4f	.	8.a/	ma-	czy
.	16f/Jk	.	.	16f/	-rzeń	nie
4BBB-/ 4BB-	2g/	4rg	.	2g/	snuj	ty?...
4r	.	4B-\ 4d-X 4f	.	.	.	.
=7	=7	=7	=7	=7	=7	=7
4FF/ 4F	8.r	4rg	.	8.r	.	.
.	16f/KL	.	.	16f/	Do-	Ktoś
4r	8.g/	4A\ 4c	.	8.g/	-ko-	zbli-
.	16f/Jk	.	.	16f/	-ła	-ża
4DD-X/ 4D-X	4a-X/	4c-X\ 4f	.	4a-X/	książ-	się
4CC/ 4C	4g/	4B-\ 4e	.	4g/	-ki	i
=8	=8	=8	=8	=8	=8	=8
4FF/ 4F	1f	4re	.	1f	kart,	gra...
4r	.	4A\ 4c	.	.	.	.
4CC/ 4C	.	4re	.	.	.	.
4r	.	4A\ 4c	.	.	.	.
=9	=9	=9	=9	=9	=9	=9
4AA\ 4A	8.r	4re	.	8.r	.	.
.	16d/KL	.	.	16d/	O	Bo-
4r	8.f/	4F</ 4c<	.	8.f/	to-	-ha-
.	16d/Jk	.	<	16d/	-bie	-ter
4AA-X\ 4A-X	4f/	4ryy	.	4f/	czy-	to
4r	4d/	4F</ 4Bn<	[[	4e/	-tam	czy
=10	=10	=10	=10	=10	=10	=10
4GG/ 4G	4cc/	4r	.	4cc\	no-	zło-
4r	2.cc/	4c\ 4e 4b-	.	2.cc\	-cą...	-dziej?
4CC/ 4C	.	4r	.	.	.	.
4r	.	4c\ 4e 4b-	.	.	.	.
!!LO:LB:g=original	!	!	!	!	!	!
=11	=11	=11	=11	=11	=11	=11
4GG/ 4G	8.r	4re	.	8.r	.	.
.	16cc/KL	.	.	16cc\	1.     Pło-	2.     A
4r	8.dd/	4e\ 4b-	.	8.dd\	-mie-	mo-
.	16cc/Jk	.	.	16cc\	-nie	-że
4CC/ 4C	4dd/	4re	>	4dd\	świec	strun
4r	4ee/	4e\ 4g#X 4cc	.	4ee\	mi-	cza-
=12	=12	=12	=12	=12	=12	=12
4FF/ 4F	4a/	4re	]	4a/	-go-	-ro-
4r	2.a/	4c\ 4f	.	2.a/	-cą...	-dziej?
4CC/ 4C	.	4re	.	.	.	.
4r	.	4c\ 4f	.	.	.	.
=13	=13	=13	=13	=13	=13	=13
4FF/ 4F	8.r	4re	.	8.r	.	.
.	16cc/KL	.	.	16cc\	I	Już
4r	8.cc/	4c\ 4f 4a	.	8.cc\	o	mus-
.	16a/Jk	.	.	16a/	tem	-ka
4BBB-/ 4BB-	2b-/	4re	.	2b-\	śnię	skroń
4r	.	4d-X\ 4f 4g	.	.	.	.
=14	=14	=14	=14	=14	=14	=14
4FF/ 4F	8.r	4re	.	8.r	.	.
.	16a/KL	.	.	16a/	Że	Twa
4r	8.a/	4c\ 4f	.	8.a/	ko-	bia-
.	16f/Jk	.	.	16f/	-cha	-ła
4BBB-/ 4BB-	2g/	4re	.	2g/	mnie	dłoń,
4r	.	4B-\ 4d-X 4f	.	.	.	.
=15	=15	=15	=15	=15	=15	=15
4FF/ 4F	8.r	4re	.	8.r	.	.
.	16f/KL	.	.	16f/	Wę-	Prze-
4r	8.g/	4A\ 4c	.	8.g/	-dro-	-sła-
.	16f/Jk	.	.	16f/	-wny	-nia
4EE/ 4E	4a/	4B-\ 4d	.	4a/	skrzy-	o-
4AA/ 4E	4g/	4A\ 4c#X	.	4g/	-pek	-czy
!!LO:LB:g=original	!	!	!	!	!	!
=16	=16	=16	=16	=16	=16	=16
4DD/ 4D	1f	4re	.	1f	1.     bard	2.     mgła...
4r	.	4A\ 4d	.	.	.	.
4BBBn/ 4BBn	.	4re	.	.	.	.
4r	.	4G#X\ 4d	.	.	.	.
=17	=17	=17	=17	=17	=17	=17
*^	*	*	*	*	*	*
2A/	4AA\	8.e/L	4re	<	8.e/	Zda-	O-
.	.	16a/K	.	.	16a/	-je	-to
.	4r	8.bn/	4c\ 4e	.	8.bn\	się	tra-
.	.	16cc/Jk	.	.	16cc\	jak	-cę
2G#X/	4AA\	4ee/	4re	.	4ee\	gdy-	si-
.	4r	4cc/	4c\ 4e 4a	[[	4cc\	-by	-ły...
=18	=18	=18	=18	=18	=18	=18	=18
2Gn/	4AA\	8.bn/L	4re	.	8.bn\	Po-	Ca-
.	.	16a/K	.	.	16a/	-przez	-łuj
.	4r	8.b/	4c\ 4e	.	8.b\	o-	mnie
.	.	16cc/Jk	.	.	16cc\	-kna	mój
2F#X/	4AA\	4e/	4re	.	4e/	szy-	mi-
.	4DD\ 4D	4f#X/	4c\ 4d	.	4f#X/	-by	-ły
*v	*v	*	*	*	*	*	*
=19	=19	=19	=19	=19	=19	=19
2GG/ 2G	8.g/L	4re	.	8.g/	Drży	Za
.	16a/K	.	.	16a/	dzi-	nim
.	8.cc/	4e\ 4g	.	8.cc\	-wa-	bły-
.	16a/Jk	.	.	16a/	-czny	-śnie
4DD/ 4D	4dd/	4f#X\ 4cc	.	4dd\	cień	pro-
4GG/ 4G	4ee/	4fn\ 4bn	.	4ee\	jak	-mień
=20	=20	=20	=20	=20	=20	=20
1CC 1C	1cc	4c\ 4e 4b-	>	1cc	czart...	dnia...
.	.	4d\ 4f 4b-	.	.	.	.
.	.	4d#X\ 4f#X 4b-	.	.	.	.
.	.	4e\ 4g 4b-	]]	.	.	.
*	*v	*v	*	*	*	*
!!LO:PB:g=original	!	!	!	!	!
=21!|:	=21!|:	=21!|:	=21!|:	=21!|:	=21!|:
*^	*	*	*	*	*
!	!	!	!	!LO:TX:a:t=REFRAIN.	!	!
4r	4AA\ 4E	2c/	p	2c/	1.2. To	.
4F/ 4A 4c	4rBB	.	.	.	.	.
4r	4CC\ 4C	2d/	.	2d/	jest	.
4F/ 4A 4c	4rBB	.	.	.	.	.
=22	=22	=22	=22	=22	=22	=22
4r	4FF\ 4C	2f/	.	2f/	pieśń	.
4A/ 4c	4rBB	.	.	.	.	.
4r	4CC\ 4C	2a/	.	2a/	mi-	.
4A>\ 4c> 4f>	4rBB	.	.	.	.	.
*v	*v	*	*	*	*	*
=23	=23	=23	=23	=23	=23
*	*^	*	*	*	*
4EE/ 4E	1a	4re	.	1a	-ło-	.
4r	.	4A\ 4c#X 4g	.	.	.	.
4AAA/ 4AA	.	4r	.	.	.	.
4r	.	4A\ 4c# 4g	.	.	.	.
*	*v	*v	*	*	*	*
=24	=24	=24	=24	=24	=24
*^	*	*	*	*	*
4r	4CC#X\ 4C#X	1e	.	1e	-ści,	.
4G/ 4A	4rBB	.	.	.	.	.
4r	4AAA\ 4AA	.	.	.	.	.
4G/ 4A	4rBB	.	.	.	.	.
=25	=25	=25	=25	=25	=25	=25
4r	4AA\	2d/	.	2d/	Mu-	.
4F#X/ 4cn	4rBB	.	.	.	.	.
4r	4DD\ 4D	2e/	.	2e/	-zy-	.
4F#/ 4c	4rBB	.	.	.	.	.
*v	*v	*	*	*	*	*
=26	=26	=26	=26	=26	=26
*	*^	*	*	*	*
4AA\ 4A	2f#X/	4re	.	2f#X/	-ka	.
4r	.	4c\ 4d	.	.	.	.
4DD/ 4D	2b-/	4re	.	2b-\	prze-	.
4r	.	4c\ 4f#X	.	.	.	.
!!LO:LB:g=original	!	!	!	!	!	!
=27	=27	=27	=27	=27	=27	=27
4DD/ 4D	1a	4re	.	1a	-szło-	.
4r	.	4Bn\ 4fn	.	.	.	.
4GG/	.	4re	.	.	.	.
4r	.	4B\ 4f	.	.	.	.
=28	=28	=28	=28	=28	=28	=28
4DD/ 4D	1g	4re	.	1g	-ści,	.
4r	.	4Bn\ 4f	.	.	.	.
4GG/	.	4re	.	.	.	.
4r	.	4B\ 4f	.	.	.	.
=29	=29	=29	=29	=29	=29	=29
4GG/ 4G	2e/	4re	.	2e/	sen-	.
4r	.	4B-X\ 4c	<	.	.	.
4CC/ 4C	4f/	4B-\ 4d	.	4f/	-na	.
4r	4f#X/	4B-\ 4d#X	.	4f#X/	me-	.
=30	=30	=30	=30	=30	=30	=30
4EE/ 4E	2g/	4re	[[	2g/	-lo-	.
4r	.	4B-\ 4c 4e	.	.	.	.
4C\ 4B-	2dd/	4re	.	2dd\	-dja	.
4r	.	4e\ 4g#X	.	.	.	.
=31	=31	=31	=31	=31	=31	=31
4FF/ 4F	2dd/	4rg	<	2dd\	cie-	.
4r	.	4c\ 4f 4a	.	.	.	.
4CC/ 4C	[2cc/	4rg	.	[>2cc\	-nia	.
4r	.	4c\ 4f 4a	.	.	.	.
=32	=32	=32	=32	=32	=32	=32
4AA\ 4A	4cc/]	4rg	.	4cc\]	.	.
4r	4r	4c\ 4f	.	4r	.	.
4CC/ 4C	2ee/	4rg	.	2ee\	co	.
4r	.	4f\ 4cc	.	.	.	.
=33	=33	=33	=33	=33	=33	=33
4AA-X\ 4A-X	2ee/	4rg	.	2ee\	zmie-	.
4r	.	4f\ 4bn	.	.	.	.
4CC/ 4C	[2dd/	4rg	.	[2dd\	-nia	.
4r	.	4f\ 4b	.	.	.	.
!!LO:LB:g=original	!	!	!	!	!	!
=34	=34	=34	=34	=34	=34	=34
4AA-X\ 4A-X	4dd/]	4rg	.	4dd\]	.	.
4r	4r	4f\ 4bn	.	4r	.	.
4CC/ 4C	2ff/	4rg	.	2ff\	Me	.
4r	.	4f\ 4b 4dd	.	.	.	.
=35	=35	=35	=35	=35	=35	=35
4GG/ 4G	4ff/	4rg	>	4ff\	ży-	.
4r	4dd/	4f\ 4b-X	.	4dd\	-cie	.
4GG/ 4G	4b-/	4rg	.	4b-\	w złe	.
4r	4d/	4G\ 4B-	]	4d/	ma-	.
*	*v	*v	*	*	*	*
=36	=36	=36	=36	=36	=36
*^	*	*	*	*	*
4D/	4CC\	2a/	.	2a/	-rze-	.
4D#X/	4r	.	.	.	.	.
2E/ 2B-	4CC\	2g#X/ 2cc	.	2g#X/	-nia...	.
.	4r	.	.	.	.	.
=37	=37	=37	=37	=37	=37	=37
4r	4FF\ 4C	2c/	p	2c/	To	.
4F/ 4A 4c	4r	.	.	.	.	.
4r	4CC\ 4C	2d/	.	2d/	jest	.
4F/ 4A 4c	4r	.	.	.	.	.
=38	=38	=38	=38	=38	=38	=38
4r	4FF\ 4C	2f/	.	2f/	pieśń	.
4A/ 4c	4r	.	.	.	.	.
4r	4CC\ 4C	2a/	.	2a/	ko-	.
4A>\ 4c> 4f>	4r	.	.	.	.	.
*v	*v	*	*	*	*	*
=39	=39	=39	=39	=39	=39
*	*^	*	*	*	*
4EE/ 4E	1a	4re	.	1a	-cha-	.
4r	.	4A\ 4c#X 4g	.	.	.	.
4AAA/ 4AA	.	4re	.	.	.	.
4r	.	4A\ 4c# 4g	.	.	.	.
*	*v	*v	*	*	*	*
=40	=40	=40	=40	=40	=40
*^	*	*	*	*	*
4r	4CC#X\ 4C#X	1e	.	1e	-nia,	.
4G/ 4A	4r	.	.	.	.	.
4r	4AAA\ 4AA	.	.	.	.	.
4G/ 4A	4r	.	.	.	.	.
=41	=41	=41	=41	=41	=41	=41
4r	4AA\	2d/	.	2d/	Któ-	.
4F#X/ 4cn	4r	.	.	.	.	.
4r	4DD\ 4D	4f#X/	.	4f#X/	-re	.
4c>\ 4f>	4r	4a/	<	4a/	mi	.
*v	*v	*	*	*	*	*
=42	=42	=42	=42	=42	=42
*	*^	*	*	*	*
4FF#X/ 4F#X	2cc/	4rg	.	2cc\	świat	.
4r	.	4c\ 4d 4a	.	.	.	.
4DD/ 4D	2ee-X/	4rg	[	2ee-X\	prze-	.
4r	.	4f#X\ 4a 4cc	.	.	.	.
=43	=43	=43	=43	=43	=43	=43
4GG/ 4G	1ee-X	4rg	.	1ee-X	-sła-	.
4r	.	4d\ 4g 4b-	.	.	.	.
4DD/ 4D	.	4rg	.	.	.	.
4r	.	4d\ 4g 4b-	.	.	.	.
=44	=44	=44	=44	=44	=44	=44
4GG/ 4G	4dd/	4r	.	8dd\	-nie,	.
.	.	.	.	8r	.	.
4r	4cc#X/	4g\ 4b-	.	4cc#X\	za	.
4DD/ 4D	4dd/	4r	.	4dd\	to-	.
4r	4ee/	4g\ 4b-	.	4ee\	-bą,	.
=45	=45	=45	=45	=45	=45	=45
4GG#X/ 4G#X	2ff/	4r	f	2ff\	mi-	.
4r	.	4f\ 4bn 4dd	.	.	.	.
4GG#/ 4G#	2bnX/	4r	.	2bn\	-ły	.
4r	.	4d\ 4f	.	.	.	.
=46	=46	=46	=46	=46	=46	=46
4EE/ 4E	2.ee/	4r	.	2.ee\	mój,	.
4r	.	4d\ 4e 4g#X	.	.	.	.
4EE/ 4E	.	4r	.	.	.	.
4r	4dd/	4d\ 4e 4g#	.	4dd\	na	.
=47	=47	=47	=47	=47	=47	=47
4AA\ 4A	4cc/	4r	<	4cc\	świa-	.
4r	4bn/	4c\ 4e	.	4bn\	-ta	.
4GG/ 4G	4b-X/	4r	.	4b-X\	skraj	.
4r	4a/	4c\ 4e-X	[[	4a/	bym	.
!!LO:LB:g=original	!	!	!	!	!	!
=48	=48	=48	=48	=48	=48	=48
2.FF#X;</ 2.F#X	2.dd;/	2.d\ 2.a 2.cc	.	2.dd;\	szła,	.
4r	4d/	4rc	p	4d/	Gdy	.
=49	=49	=49	=49	=49	=49	=49
4GG/ 4G	2b-/	4r	.	2b-\	mi-	.
4r	.	4d\ 4g	.	.	.	.
4GG/ 4G	2cc/	4r	.	2cc\	-łość	.
4r	.	4d-X\ 4f 4g	>	.	.	.
=50	=50	=50	=50	=50	=50	=50
4CC/ 4C	2a/	4r	.	2a/	pieśń	.
4r	.	4B-\ 4c 4e	.	.	.	.
4CC/ 4C	2g/	4r	.	2g/	swą	.
4r	.	4B-\ 4c 4e	]]	.	.	.
=51	=51	=51	=51	=51	=51	=51
*>A1	*>A1	*>A1	*>A1	*>A1	*>A1	*>A1
2FF/ 2F	6f/	2A\ 2c	<	[1f	gra..	.
.	6g/	.	.	.	.	.
.	6a/	.	.	.	.	.
2DD/ 2D	2dd/	4d\ 4f#X 4b-	.	.	.	.
.	.	4c\ 4f# 4a	[[	.	.	.
=52	=52	=52	=52	=52	=52	=52
2GG/ 2D	6d/	2G\ 2B-	>	4f/]	.	.
.	6e/	.	.	.	.	.
.	.	.	.	4r	.	.
.	6fn/	.	.	.	.	.
2CC/ 2C	2cc/	4c\ 4e 4a	.	2r	.	.
.	.	4B-\ 4e 4g	]]	.	.	.
=53:|!	=53:|!	=53:|!	=53:|!	=53:|!	=53:|!	=53:|!
*>A2	*>A2	*>A2	*>A2	*>A2	*>A2	*>A2
2FF/ 2F	6f/	2A\ 2c	>	[1f	gra...	.
.	6g/	.	.	.	.	.
.	6a/	.	.	.	.	.
2FF/ 2F	6b-/	2d-X\ 2f 2g	.	.	.	.
.	6dd-X/	.	.	.	.	.
.	6ff/	.	.	.	.	.
*	*v	*v	*	*	*	*
=54	=54	=54	=54	=54	=54
1FF 1F	1a 1cc 1ff 1aa	] pp	4f/]	.	.
.	.	.	4r	.	.
.	.	.	2r	.	.
==	==	==	==	==	==
*-	*-	*-	*-	*-	*-
!!!system-decoration: s1{(s2,s3)}
!!!RDF**kern: > = above
!!!RDF**kern: < = below
!!!ENC: Berenika Jozajtis
!!!END: 2023-08-22
!!!ENC: Jan Barakat
!!!END: 2023-09-16
